!!!!SEGMENT: pl-kk--kk-i-397--004_kaspar--missa-sanctus.krn
!!!id: 18xx:1449
!!!COM: Kaspar
!!!COM-rism: pe30048142
!!!CDT:
!!!CNT:
!!!OTL: Missa – Sanctus
!!!PDT: 1856
!!!SMS-siglum: PL-Kk
!!!SMS-shelfmark: Kk.I.397
!!!NIFC-rismID: 1001139936
!!!URL-scan: http://repozytorium.nifc.pl/skany/pl-kk-nut--i-397
!!!ONB-nifc: UWAGA: na podstawie głosów. Proszę uzupełnić pola !!!SMS dot. partytury i głosów. Uwaga: części Mszy: 1. Kyrie, 2. Gloria, 3. Credo, 4. Sanctus, 5. Benedictus, 6. Agnus
!!!SMS-variant: Sopran Pl-Kk KK.I.397:0014; Alt. Pl-Kk KK.I.397:0019; Tenor. Pl-Kk KK.I.397:0024; Bas. Pl-Kk KK.I.397:0029
!!!SMS-altvar: [Partytura] Pl-Kk KK.I.397:0007-0008
**kern	**text	**dynam	**kern	**text	**dynam	**kern	**text	**dynam	**kern	**text	**dynam
*part4	*part4	*part4	*part3	*part3	*part3	*part2	*part2	*part2	*part1	*part1	*part1
*staff4	*staff4	*	*staff3	*staff3	*	*staff2	*staff2	*	*staff1	*staff1	*
*I"Bas.	*	*	*I"Tenor.	*	*	*I"Alt.	*	*	*I"Sopran	*	*
*I'B	*	*	*I'T	*	*	*I'A	*	*	*I'S	*	*
*clefF4	*	*	*clefC4	*	*	*clefC3	*	*	*clefC1	*	*
*k[b-]	*	*	*k[b-]	*	*	*k[b-]	*	*	*k[b-]	*	*
*F:	*	*	*F:	*	*	*F:	*	*	*F:	*	*
*M4/4	*	*	*M4/4	*	*	*M4/4	*	*	*M4/4	*	*
*met(c)	*	*	*met(c)	*	*	*met(c)	*	*	*met(c)	*	*
=1	=1	=1	=1	=1	=1	=1	=1	=1	=1	=1	=1
*all\right	*	*	*all\right	*	*	*all\right	*	*	*all\right	*	*
*2\right	*	*	*2\right	*	*	*2\right	*	*	*	*	*
!LO:TX:a:t=Larghetto	!	!LO:DY:rj:t=p.	!LO:TX:a:t=Larghetto	!	!LO:DY:rj:t=p	!LO:TX:a:t=Larghetto	!	!LO:DY:rj:t=p	!LO:TX:a:t=Larghetto	!	!LO:DY:rj
(2F\	San-	p	(2A\	San-	p	(2.c\	San-	p	2f/	San-	p
4C\	.	.	4G\	.	.	.	.	.	(>4e/	.	.
4D\	.	.	4A\	.	.	4A/	.	.	4f/	.	.
=2	=2	=2	=2	=2	=2	=2	=2	=2	=2	=2	=2
1GG)	.	.	1F)	.	.	1Bn	.	.	1d)	.	.
=3	=3	=3	=3	=3	=3	=3	=3	=3	=3	=3	=3
4C/	-ctus	.	4E/	-ctus	.	4c\)	-ctus	.	4c/	-ctus	.
4r	.	.	4r	.	.	4r	.	.	4r	.	.
!	!	!	!	!	!	!	!	!LO:DY:t=p.	!	!	!
2r	.	.	2r	.	.	2r	.	p	2r	.	p
=4	=4	=4	=4	=4	=4	=4	=4	=4	=4	=4	=4
*	*	*	*	*	*	*	*	*	*2\right	*	*
!	!	!LO:DY:t=p.	!	!	!LO:DY:rj:t=p	!	!	!	!	!	!
(2E\	san-	p	2.c\	san-	p	2g\	San-	.	(2cc\	Sa-	.
4F\	.	.	.	.	.	([2f\	.	.	4a\	.	.
4BB-\	.	.	4d\	-ctus	.	.	.	.	4b-\)	.	.
=5	=5	=5	=5	=5	=5	=5	=5	=5	=5	=5	=5
1C)	.	.	(2.c\	san-	.	8f\L]	.	.	1g	-ctus	.
.	.	.	.	.	.	8g\	.	.	.	.	.
.	.	.	.	.	.	8e\	.	.	.	.	.
.	.	.	.	.	.	8d\J	.	.	.	.	.
.	.	.	.	.	.	2e\	.	.	.	.	.
.	.	.	4B-\)	.	.	.	.	.	.	.	.
=6	=6	=6	=6	=6	=6	=6	=6	=6	=6	=6	=6
2F\	-ctus	.	4A\	-ctus	.	4f\)	-ctus	.	2f/	san-	.
.	.	.	(4A\	san-	.	(4f\	san-	.	.	.	.
[2F\	san-	.	4B-\	.	.	4e\	.	.	(4g\	.	.
.	.	.	4c\	.	.	4e-X\	.	.	4a\	.	.
=7	=7	=7	=7	=7	=7	=7	=7	=7	=7	=7	=7
1F]	.	.	4B-\	.	.	4d\	.	.	4b-\	.	.
.	.	.	4A\	.	.	4e-X\	.	.	4cc\	.	.
.	.	.	4B-\	.	.	4d\	.	.	4dd\	.	.
.	.	.	8c\L	.	.	8en\L	.	.	8cc\L	.	.
.	.	.	8d\J)	.	.	8f\J)	.	.	8b-\J)	.	.
!LO:LB:g=original	!	!	!LO:LB:g=original	!	!	!LO:LB:g=original	!	!	!LO:LB:g=original	!	!
=8	=8	=8	=8	=8	=8	=8	=8	=8	=8	=8	=8
4E\	-ctus	.	4c\	-ctus	.	4g\	-ctus	.	4cc\	-ctus	.
4c\	Do-	.	2c\	Do-	.	4e\	do-	.	4cc\	do-	.
4B-\	-mi-	.	.	.	.	4g\	-mi-	.	4dd\	-mi-	.
4G\	-nus	.	8.c\	-mi-	.	4b-\	-nus	.	4ee\	-nus	.
.	.	.	16c\	-nus	.	.	.	.	.	.	.
=9	=9	=9	=9	=9	=9	=9	=9	=9	=9	=9	=9
4A\	De-	.	4c\	De-	.	(8a\L	De-	.	4ff\	De-	.
.	.	.	.	.	.	8g\J)	.	.	.	.	.
4B-\	-us	.	4d\	-us	.	2f\	-us	.	4dd\	-us	.
4.G\	sa-	.	4d\	sa-	.	.	.	.	4.b-\	sa-	.
.	.	.	4B-\	-ba-	.	8.e\	sa-	.	.	.	.
8G\	-ba-	.	.	.	.	.	.	.	8b-\	-ba-	.
.	.	.	.	.	.	16e\	-ba-	.	.	.	.
=10	=10	=10	=10	=10	=10	=10	=10	=10	=10	=10	=10
4F\	-ot	.	4c\	-ot	.	4f\	-ot	f	4a\	-ot	.
.	.	f	.	.	f	.	.	.	.	.	.
4F\	ple-	.	4c\	ple-	.	4a\	ple-	.	4ff\	ple-	.
4F\	-ni	.	4c\	-ni	.	4a\	-ni	.	4ff\	-ni	.
4F\	sunt	.	4c\	sunt	.	4a\	sunt	.	4ff\	sunt	.
=11	=11	=11	=11	=11	=11	=11	=11	=11	=11	=11	=11
2F\	ce-	.	2c\	ce-	.	2a\	ce-	.	2ff\	ce-	.
2F\	-li	.	2c\	-li	.	2a\	-li	.	2ff\	-li	.
=12	=12	=12	=12	=12	=12	=12	=12	=12	=12	=12	=12
2D\	ce-	.	2d\	ce-	.	2a\	ce-	.	2ff\	ce-	.
4D\	-li	.	4d\	-li	.	4a\	-li	.	4ff\	-li	.
4D\	et	.	4d\	et	.	4a\	et	.	4ff\	et	.
!	!	!	!	!	!	!	!	!	!LO:LB:g=original	!	!
=13	=13	=13	=13	=13	=13	=13	=13	=13	=13	=13	=13
2D\	ter-	.	2d\	ter-	.	2a\	ter-	.	2ff\	ter-	.
2D\	-ra	.	2d\	-ra	.	2a\	-ra	.	2ff\	-ra	.
!LO:LB:g=original	!	!	!LO:LB:g=original	!	!	!LO:LB:g=original	!	!	!	!	!
=14	=14	=14	=14	=14	=14	=14	=14	=14	=14	=14	=14
2G\	glo-	.	2d\	glo-	.	2b-\	glo-	.	2dd\	glo-	.
4G\	-ri-	.	4d\	-ri-	.	4b-\	-ri-	.	4dd\	-ri-	.
4G\	-a	.	4d\	-a	.	4b-\	-a	.	4dd\	-a	.
=15	=15	=15	=15	=15	=15	=15	=15	=15	=15	=15	=15
2G\	tu-	.	2d\	tu-	.	2b-\	tu-	.	2dd\	tu-	.
2GG/	-a	.	2d\	-a	.	2b-\	-a	.	2dd\	-a	.
=16	=16	=16	=16	=16	=16	=16	=16	=16	=16	=16	=16
4G\	glo-	.	[1c	glo-	.	(2.b-\	glo-	.	(4ee\	glo-	.
4F\	.	.	.	.	.	.	.	.	4dd\	.	.
4E\	.	.	.	.	.	.	.	.	4cc\	.	.
8F\L	.	.	.	.	.	8a\L	.	.	8dd\L	.	.
8G\J	.	.	.	.	.	8g\J	.	.	8ee\J	.	.
=17	=17	=17	=17	=17	=17	=17	=17	=17	=17	=17	=17
4A\	.	.	2c\]	.	.	4f\	.	.	4ff\	.	.
4B-\	.	.	.	.	.	4g\	.	.	4ee\)	.	.
4A\	-ri-	.	4c\	-ri-	.	4f\)	-ri-	.	4ff\	-ri-	.
4F\	-a	.	4c\	-a	.	4a\	-a	.	4cc\	-a	.
=18	=18	=18	=18	=18	=18	=18	=18	=18	=18	=18	=18
(4E\	glo-	.	2c\	glo-	.	2b-\	glo-	.	2gg\	glo-	.
4C\)	.	.	.	.	.	.	.	.	.	.	.
4F\	-ri-	.	4c\	-ri-	.	4a\	-ri-	.	4ff\	-ri-	.
4A\	-a	.	4c\	-a	.	4a\	-a	.	4ff\	-a	.
!	!	!	!	!	!	!	!	!	!LO:LB:g=original	!	!
=19	=19	=19	=19	=19	=19	=19	=19	=19	=19	=19	=19
(2c\	tu-	.	1c	tu-	.	1g	tu-	.	(2ff\	tu-	.
2C/)	.	.	.	.	.	.	.	.	2ee\)	.	.
!LO:LB:g=original	!	!	!	!	!	!	!	!	!	!	!
=20||	=20||	=20||	=20||	=20||	=20||	=20||	=20||	=20||	=20||	=20||	=20||
!LO:TX:a:t=allo&colon;	!	!	!LO:TX:a:t=allo	!	!	!	!	!	!	!	!
4F\	-a	.	4c\	-a	.	4a\	-a	.	4ff\	-a	.
!	!	!	!	!	!	!LO:TX:a:t=allegro	!	!	!LO:TX:a:t=allegro	!	!
4r	.	.	4r	.	.	4r	.	.	4r	.	.
.	.	.	.	.	f	.	.	.	.	.	.
2r	.	.	2c\	o-	.	2r	.	.	2r	.	.
!	!	!	!LO:PB:g=original	!	!	!	!	!	!	!	!
=21	=21	=21	=21	=21	=21	=21	=21	=21	=21	=21	=21
!	!	!LO:DY:rj	!	!	!	!	!	!	!LO:TX:a:t=1	!	!
4r	.	f	[1c	-san-	.	1r	.	.	1r	.	.
(4C\	o-	.	.	.	.	.	.	.	.	.	.
4D\	.	.	.	.	.	.	.	.	.	.	.
4E\)	.	.	.	.	.	.	.	.	.	.	.
!	!	!	!	!	!	!LO:LB:g=original	!	!	!	!	!
=22	=22	=22	=22	=22	=22	=22	=22	=22	=22	=22	=22
(4F\	-san-	.	1c]	.	.	2r	.	f	2r	.	f
4G\	.	.	.	.	.	.	.	.	.	.	.
4A\	.	.	.	.	.	2a\	o-	.	2ff\	o-	.
8G\L	.	.	.	.	.	.	.	.	.	.	.
8F\J	.	.	.	.	.	.	.	.	.	.	.
=23	=23	=23	=23	=23	=23	=23	=23	=23	=23	=23	=23
2c\)	.	.	2c\	-na	.	(4g\	-san-	.	(4ee\	-san-	.
.	.	.	.	.	.	4f\	.	.	4dd\	.	.
4C/	-na	.	2c\	o-	.	4e\	.	.	4cc\	.	.
4C/	o-	.	.	.	.	4g\)	.	.	4b-\)	.	.
=24	=24	=24	=24	=24	=24	=24	=24	=24	=24	=24	=24
(4F\	-san-	.	[1c	-san-	.	4f\	-na	.	4a\	-na	.
4G\	.	.	.	.	.	4r	.	.	4r	.	.
4A\	.	.	.	.	.	2a\	o-	.	2ff\	o-	.
8G\L	.	.	.	.	.	.	.	.	.	.	.
8F\J	.	.	.	.	.	.	.	.	.	.	.
=25	=25	=25	=25	=25	=25	=25	=25	=25	=25	=25	=25
2c\	.	.	(1c]	.	.	4g\	-san-	.	4ee\	-san-	.
.	.	.	.	.	.	4f\	.	.	(4dd\	.	.
4C/)	-na	.	.	.	.	4e\	.	.	4cc\	.	.
4C/	o-	.	.	.	.	4g\	.	.	4b-\	.	.
!LO:LB:g=original	!	!	!	!	!	!	!	!	!	!	!
=26	=26	=26	=26	=26	=26	=26	=26	=26	=26	=26	=26
(2F\	-san-	.	4c\	.	.	2f\	-na	.	4a\	.	.
.	.	.	4d\)	.	.	.	.	.	4bn\	.	.
4E\	.	.	4c\	-na	.	4g\	o-	.	2cc\)	.	.
8F\L	.	.	4c\	o-	.	8a\L	.	.	.	.	.
8E\J	.	.	.	.	.	8g\J	.	.	.	.	.
!	!	!	!	!	!	!	!	!	!LO:LB:g=original	!	!
=27	=27	=27	=27	=27	=27	=27	=27	=27	=27	=27	=27
2D\	.	.	1d	-san-	.	4f\	-san-	.	(2cc\	-a-	.
.	.	.	.	.	.	4a\	.	.	.	.	.
2G\)	.	.	.	.	.	4g\	.	.	2bn\)	.	.
.	.	.	.	.	.	4f\	.	.	.	.	.
=28	=28	=28	=28	=28	=28	=28	=28	=28	=28	=28	=28
4C/	-na	.	4c\	-na	.	4e\	-na	.	4cc\	-na	.
4r	.	.	4r	.	.	4r	.	.	4r	.	.
!	!	!	!LO:TX:t=P:problem:dwa takty wykreślone	!	!	!	!	!	!	!	!
2r	.	.	2r	.	.	2g\	o-	.	2r	.	.
!	!	!	!LO:LB:g=original	!	!	!LO:LB:g=original	!	!	!	!	!
=29	=29	=29	=29	=29	=29	=29	=29	=29	=29	=29	=29
!LO:TX:a:t=1	!	!	!	!	!	!	!	!	!	!	!
1r	.	.	4r	.	.	[1g	-san-	.	4r	.	.
.	.	.	4g\	o-	.	.	.	.	(4g\	o-	.
.	.	.	(4f\	-san-	.	.	.	.	4a\	.	.
.	.	.	4d\	.	.	.	.	.	4b-\)	.	.
=30	=30	=30	=30	=30	=30	=30	=30	=30	=30	=30	=30
2r	.	.	4e\	.	.	1g]	.	.	4cc\	-san-	.
.	.	.	4f\)	-na	.	.	.	.	(4dd\	.	.
!	!	!	!	!	!LO:DY:t=f	!	!	!	!	!	!
.	.	.	.	.	f	.	.	.	.	.	.
2c\	o-	.	2e\	o-	.	.	.	.	4ee\	.	.
.	.	.	.	.	.	.	.	.	8dd\L	.	.
.	.	.	.	.	.	.	.	.	8cc\J	.	.
=31	=31	=31	=31	=31	=31	=31	=31	=31	=31	=31	=31
(4Bn\	-san-	.	(4d\	-san-	.	2g\	-na	.	2gg\	.	.
4A\	.	.	4c\	.	.	.	.	.	.	.	.
4G\	.	.	4Bn\	.	.	2g\	o-	.	4g\)	-na	.
4F\)	.	.	4d\)	.	.	.	.	.	4g\	o-	.
=32	=32	=32	=32	=32	=32	=32	=32	=32	=32	=32	=32
4E\	-na	.	4G/	-na	.	[1g	-san-	.	(4cc\	-san-	.
4r	.	.	4r	.	.	.	.	.	4dd\	.	.
(2c\	o-	.	2e\	o-	.	.	.	.	4ee\	.	.
.	.	.	.	.	.	.	.	.	8dd\L	.	.
.	.	.	.	.	.	.	.	.	8cc\J	.	.
=33	=33	=33	=33	=33	=33	=33	=33	=33	=33	=33	=33
4Bn\	-san-	.	(4d\	-san-	.	1g_	.	.	2gg\)	.	.
4A\	.	.	4c\	.	.	.	.	.	.	.	.
4G\	.	.	4Bn\	.	.	.	.	.	4g\	-na	.
4F\)	.	.	4d\	.	.	.	.	.	4g\	o-	.
!LO:PB:g=original	!	!	!	!	!	!	!	!	!LO:PB:g=original	!	!
=34	=34	=34	=34	=34	=34	=34	=34	=34	=34	=34	=34
(4E\	-a-	.	4c\	.	.	4g\]	.	.	(2.cc\	-san-	.
4C/)	.	.	4B-X\	.	.	4e\	.	.	.	.	.
4F\	-na	.	4A\)	-na	.	4f\	-na	.	.	.	.
4F\	o-	.	(8B-\L	o-	.	4f\	o-	.	8dd\L	.	.
.	.	.	8c\J)	.	.	.	.	.	8cc\J	.	.
!	!	!	!LO:LB:g=original	!	!	!	!	!	!	!	!
=35	=35	=35	=35	=35	=35	=35	=35	=35	=35	=35	=35
2F\	-san-	.	(4d\	-san-	.	1g	-san-	.	4b-X\	.	.
.	.	.	4B-\	.	.	.	.	.	4dd\	.	.
2E\	.	.	4G\	.	.	.	.	.	4cc\	.	.
.	.	.	4c\)	.	.	.	.	.	4b-\)	.	.
=36	=36	=36	=36	=36	=36	=36	=36	=36	=36	=36	=36
4F\	-na	.	4c\	-na	.	4f\	-na	.	4a\	-na	.
4r	.	.	4r	.	.	4r	.	.	4r	.	.
2r	.	.	2r	.	.	2r	.	.	2cc\	o-	.
=37	=37	=37	=37	=37	=37	=37	=37	=37	=37	=37	=37
4r	.	.	1r	.	.	4r	.	.	[1cc	-san-	.
4c\	o-	.	.	.	.	(4c\	o-	.	.	.	.
(4B-\	-san-	.	.	.	.	4d\	.	.	.	.	.
4G\	.	.	.	.	.	4e\)	.	.	.	.	.
!	!	!	!	!	!	!LO:LB:g=original	!	!	!	!	!
=38	=38	=38	=38	=38	=38	=38	=38	=38	=38	=38	=38
4A\	.	.	4r	.	.	(4f\	-san-	.	1cc]	.	.
4G\)	-na	.	(4c\	o-	.	4g\	.	.	.	.	.
2F\	o-	.	4F/	.	.	4a\	.	.	.	.	.
.	.	.	4A\)	.	.	8g\L	.	.	.	.	.
.	.	.	.	.	.	8f\J	.	.	.	.	.
=39	=39	=39	=39	=39	=39	=39	=39	=39	=39	=39	=39
4E\	-san-	.	(4G\	-san-	.	2cc\)	.	.	2cc\	-na	.
(4D\	.	.	4A\	.	.	.	.	.	.	.	.
4C\	.	.	4B-\	.	.	4c\	-na	.	2cc\	o-	.
8D\L	.	.	8A\L	.	.	4c\	o-	.	.	.	.
8E\J)	.	.	8G\J)	.	.	.	.	.	.	.	.
=40	=40	=40	=40	=40	=40	=40	=40	=40	=40	=40	=40
4F\	-na	.	4A\	-na	.	4f\	-san-	.	[1cc	-san-	.
4r	.	.	(4c\	o-	.	(4g\	.	.	.	.	.
2F\	o-	.	4F\	.	.	4a\	.	.	.	.	.
.	.	.	4A\)	.	.	8g\L	.	.	.	.	.
.	.	.	.	.	.	8f\J	.	.	.	.	.
!LO:LB:g=original	!	!	!	!	!	!	!	!	!	!	!
=41	=41	=41	=41	=41	=41	=41	=41	=41	=41	=41	=41
4E\	-san-	.	4G\	-san-	.	2cc\)	.	.	1cc]	.	.
(4D\	.	.	(4A\	.	.	.	.	.	.	.	.
4C\	.	.	4B-\	.	.	4c\	-na	.	.	.	.
8D\L	.	.	8A\L	.	.	4c\	o-	.	.	.	.
8E\J)	.	.	8G\J)	.	.	.	.	.	.	.	.
!	!	!	!LO:LB:g=original	!	!	!	!	!	!	!	!
=42	=42	=42	=42	=42	=42	=42	=42	=42	=42	=42	=42
4F\	-na	.	4A\	-na	.	(4f\	-san-	.	2cc\	-na	.
4r	.	.	(4B-\	o-	.	4g\	.	.	.	.	.
2F\	o-	.	4c\	.	.	[2a\	.	.	(4a\	o-	.
.	.	.	8B-\L	.	.	.	.	.	8b-\L	.	.
.	.	.	8A\J)	.	.	.	.	.	8cc\J)	.	.
!	!	!	!	!	!	!	!	!	!LO:LB:g=original	!	!
=43	=43	=43	=43	=43	=43	=43	=43	=43	=43	=43	=43
4BB-/	-san-	.	1B-	-san-	.	2a\]	.	.	1dd	-san-	.
4C/	.	.	.	.	.	.	.	.	.	.	.
4D/	.	.	.	.	.	2f#X\	.	.	.	.	.
8C/L	.	.	.	.	.	.	.	.	.	.	.
8BB-/J	.	.	.	.	.	.	.	.	.	.	.
=44	=44	=44	=44	=44	=44	=44	=44	=44	=44	=44	=44
1E	.	.	(4B-\	.	.	1g)	.	.	(4dd\	.	.
.	.	.	4A\	.	.	.	.	.	4cc\	.	.
.	.	.	4G\	.	.	.	.	.	4b-\	.	.
.	.	.	8A\L	.	.	.	.	.	8cc\L	.	.
.	.	.	8B-\J)	.	.	.	.	.	8dd\J	.	.
!	!	!	!	!	!	!LO:LB:g=original	!	!	!	!	!
=45	=45	=45	=45	=45	=45	=45	=45	=45	=45	=45	=45
4AA/	.	.	(1A	.	.	2g\	-a-	.	[1cc	.	.
4BB-/	.	.	.	.	.	.	.	.	.	.	.
4C/	.	.	.	.	.	(2e\	.	.	.	.	.
8BB-/L	.	.	.	.	.	.	.	.	.	.	.
8AA/J	.	.	.	.	.	.	.	.	.	.	.
=46	=46	=46	=46	=46	=46	=46	=46	=46	=46	=46	=46
1D	.	.	4A\	.	.	[1fn	.	.	4cc\]	.	.
.	.	.	4G\	.	.	.	.	.	4b-\	.	.
.	.	.	4F\	.	.	.	.	.	4a\	.	.
.	.	.	8G\L	.	.	.	.	.	8b-\L	.	.
.	.	.	8A\J	.	.	.	.	.	8cc\J	.	.
=47	=47	=47	=47	=47	=47	=47	=47	=47	=47	=47	=47
4GG/	.	.	1G	.	.	2f\]	.	.	[1b-	.	.
4AA/	.	.	.	.	.	.	.	.	.	.	.
4BB-/	.	.	.	.	.	2d\	.	.	.	.	.
8AA/L	.	.	.	.	.	.	.	.	.	.	.
8GG/J	.	.	.	.	.	.	.	.	.	.	.
=48	=48	=48	=48	=48	=48	=48	=48	=48	=48	=48	=48
1C	.	.	4G\	.	.	4e\	.	.	4b-\]	.	.
.	.	.	4A\	.	.	4f\)	.	.	4a\	.	.
.	.	.	4B-\	.	.	2e\	.	.	4g\	.	.
.	.	.	8A\L	.	.	.	.	.	8a\L	.	.
.	.	.	8G\J	.	.	.	.	.	8b-\J)	.	.
!LO:LB:g=original	!	!	!	!	!	!	!	!	!	!	!
=49	=49	=49	=49	=49	=49	=49	=49	=49	=49	=49	=49
4F\	-na	.	4A\)	-na	.	4f\	-na	.	4a\	-na	.
(4F\	in	.	4r	.	f	4r	.	.	4r	.	ff
4E\)	.	.	[2f\	in	.	[2a\	in	.	[2ff\	in	.
4D\	ex-	.	.	.	.	.	.	.	.	.	.
!	!	!	!LO:LB:g=original	!	!	!	!	!	!	!	!
=50	=50	=50	=50	=50	=50	=50	=50	=50	=50	=50	=50
4C#X/	-cel-	.	2f\]	.	.	2a\]	.	.	2ff\]	.	.
(4D\	.	.	.	.	.	.	.	.	.	.	.
4Cn\	.	.	2f\	ex-	.	2a\	ex-	.	2ff\	ex-	.
4BB-\)	.	.	.	.	.	.	.	.	.	.	.
!	!	!	!	!	!	!	!	!	!LO:LB:g=original	!	!
=51	=51	=51	=51	=51	=51	=51	=51	=51	=51	=51	=51
4AA/	-sis	.	[1f	-cel-	.	[1a	-cel-	.	1ff	-cel-	.
(4F\	in	.	.	.	.	.	.	.	.	.	.
4E\)	.	.	.	.	.	.	.	.	.	.	.
4D\	ex-	.	.	.	.	.	.	.	.	.	.
=52	=52	=52	=52	=52	=52	=52	=52	=52	=52	=52	=52
4C#X/	-cel-	.	1f]	.	.	1a]	.	.	1ff	.	.
(>4D/	.	.	.	.	.	.	.	.	.	.	.
4Cn/	.	.	.	.	.	.	.	.	.	.	.
4BB-/)	.	.	.	.	.	.	.	.	.	.	.
=53	=53	=53	=53	=53	=53	=53	=53	=53	=53	=53	=53
2AA/	-sis	.	2f\	-sis	.	2a\	-sis	.	2ff\	-sis	.
2AA/	o-	.	2e-X\	o-	.	2f\	o-	.	2cc#X\	o-	.
=54	=54	=54	=54	=54	=54	=54	=54	=54	=54	=54	=54
2BB-/	-san-	.	2d\	-san-	.	2f\	-san-	.	2dd\	-san-	.
2AA/	-na	.	2e-X\	-na	.	2f\	-na	.	2cc#X\	-na	.
!	!	!	!	!	!	!LO:LB:g=original	!	!	!	!	!
=55	=55	=55	=55	=55	=55	=55	=55	=55	=55	=55	=55
!	!	!	!	!	!LO:DY:t=f	!	!	!	!	!	!LO:DY:rj:t=f.
(>1BB-	o-	.	[1d	o-	f	(1f	o-	.	1dd	o-	f
=56	=56	=56	=56	=56	=56	=56	=56	=56	=56	=56	=56
1BBn)	.	.	1d]	.	.	1a-X)	.	.	1ff	.	.
!LO:LB:g=original	!	!	!	!	!	!	!	!	!	!	!
=57	=57	=57	=57	=57	=57	=57	=57	=57	=57	=57	=57
[>1C	-san-	.	4c\	-san-	.	(4an\	-san-	.	2cc\	-san-	.
.	.	.	(4B-\	.	.	4g\	.	.	.	.	.
.	.	.	4An\	.	.	4f\	.	.	(2ff\	.	.
.	.	.	8B-\L	.	.	8g\L	.	.	.	.	.
.	.	.	8c\J	.	.	8a\J	.	.	.	.	.
=58	=58	=58	=58	=58	=58	=58	=58	=58	=58	=58	=58
1C_>	.	.	4B-\	.	.	4g\	.	.	4ee\	.	.
.	.	.	4G\	.	.	4f\	.	.	4dd\	.	.
.	.	.	4c\)	-na	.	4e\	.	.	4cc\	.	.
.	.	.	4c\	o-	.	4g\	.	.	8dd\L	.	.
.	.	.	.	.	.	.	.	.	8ee\J)	.	.
!	!	!	!LO:LB:g=original	!	!	!	!	!	!	!	!
=59	=59	=59	=59	=59	=59	=59	=59	=59	=59	=59	=59
1C_>	.	.	4c\	-san-	.	(4a\)	-na	.	2ff\	-na	.
.	.	.	(4B-\	.	.	4g\)	.	.	.	.	.
.	.	.	4A\	.	.	(4f\	o-	.	2ff\	o-	.
.	.	.	8B-\L	.	.	8g\L	.	.	.	.	.
.	.	.	8c\J	.	.	8a\J)	.	.	.	.	.
!	!	!	!	!	!	!	!	!	!LO:LB:g=original	!	!
=60	=60	=60	=60	=60	=60	=60	=60	=60	=60	=60	=60
2C/]	.	.	4B-\	.	.	(4g\	-san-	.	(4ee\	-san-	.
.	.	.	4G\	.	.	4f\)	.	.	4dd\	.	.
4C/	-na	.	4c\)	-na	.	4e\	-na	.	4cc\	.	.
4C/	o-	.	4c\	o-	.	4g\	o-	.	8dd\L	.	.
.	.	.	.	.	.	.	.	.	8ee\J)	.	.
=61	=61	=61	=61	=61	=61	=61	=61	=61	=61	=61	=61
4E-X\	-san-	.	4c\	-san-	.	(4a\	-san-	.	2ff\	-na	.
(4D\	.	.	(4B-\	.	.	4b-\	.	.	.	.	.
4C\	.	.	4A\	.	.	4cc\	.	.	2ff\	o-	.
8D\L	.	.	8B-\L	.	.	8b-\L	.	.	.	.	.
8E-\J	.	.	8c\J	.	.	8a\J)	.	.	.	.	.
!	!	!	!	!	!	!LO:LB:g=original	!	!	!	!	!
=62	=62	=62	=62	=62	=62	=62	=62	=62	=62	=62	=62
4D\	.	.	4B-\	.	.	4b-\	-a-	.	1ff	-san-	.
4C\	.	.	4A\	.	.	4cc\	.	.	.	.	.
4BB-\	.	.	4B-\	.	.	4dd\	.	.	.	.	.
8C\L	.	.	8A\L	.	.	8cc\L	.	.	.	.	.
8D\J)	.	.	8B-\J	.	.	8b-\J	.	.	.	.	.
=63	=63	=63	=63	=63	=63	=63	=63	=63	=63	=63	=63
2C/	-na	.	2B-\)	-na	.	2g\	-na	.	2ee\	-na	.
4D\	in	.	4A\	in	.	4f\	in	.	4ff\	in	.
4D\	ex-	.	4A\	ex-	.	4f\	ex-	.	4ff\	ex-	.
=64	=64	=64	=64	=64	=64	=64	=64	=64	=64	=64	=64
(>2GG/	-cel-	.	(2d\	-cel-	.	(2b-\	-cel-	.	(2ff\	-cel-	.
2C/)	.	.	2c\)	.	.	2g\)	.	.	2ee\)	.	.
!LO:LB:g=original	!	!	!	!	!	!	!	!	!	!	!
=65	=65	=65	=65	=65	=65	=65	=65	=65	=65	=65	=65
!	!	!	!	!	!	!	!	!	!LO:TX:t=P:problem:sforzato wpisane ołówkiem	!	!LO:DY:rj
2AA/	-sis	.	2c#X\	-sis	.	2a\	-sis	.	2ee\	-sis	sf
4D\	in	.	4d\	in	.	4a\	in	.	4ff\	in	.
4D\	ex-	.	4d\	ex-	.	4a\	ex-	.	4ff\	ex-	.
!	!	!	!LO:LB:g=original	!	!	!	!	!	!	!	!
=66	=66	=66	=66	=66	=66	=66	=66	=66	=66	=66	=66
2GG/	-cel-	.	(2d\	-cel-	.	(2b-\	-cel-	.	(2ff\	-cel-	.
2C/	.	.	2cn\)	.	.	2g\)	.	.	2ee\)	.	.
=67	=67	=67	=67	=67	=67	=67	=67	=67	=67	=67	=67
4F\	-sis	.	4c\	-sis	.	4a\	-sis	.	4ff\	-sis	.
4r	.	.	4r	.	f	4r	.	.	4r	.	.
[2F\	in	.	[2f\	in	.	[2a\	in	.	[2cc\	in	.
!	!	!	!	!	!	!	!	!	!LO:LB:g=original	!	!
=68	=68	=68	=68	=68	=68	=68	=68	=68	=68	=68	=68
2F\]	.	.	2f\]	.	.	2a\]	.	.	2cc\]	.	.
2F\	ex-	.	2f\	ex-	.	2a\	ex-	.	2cc\	ex-	.
=69	=69	=69	=69	=69	=69	=69	=69	=69	=69	=69	=69
[>1BB-	-cel-	.	[1f	-cel-	.	[1b-	-cel-	.	[1dd	-cel-	.
=70	=70	=70	=70	=70	=70	=70	=70	=70	=70	=70	=70
1BB-]	.	.	1f]	.	.	1b-]	.	.	1dd]	.	.
=71	=71	=71	=71	=71	=71	=71	=71	=71	=71	=71	=71
1F;	-sis	.	1f;	-sis.	.	1a;	-sis	.	1cc;	-sis	.
==	==	==	==	==	==	==	==	==	==	==	==
*-	*-	*-	*-	*-	*-	*-	*-	*-	*-	*-	*-
!!!system-decoration: [(s1,s2,s3,s4)]
!!!RDF**kern: > = above
!!!RDF**dynam: p = "p:"
!!!RDF**dynam: f = "f:"
!!!RDF**dynam: ff = "ff:"
!!!ENC: Marta Lawrence
!!!END: 2021-01-25
!!!ENC: Mateusz Solarz
!!!END: 2021-01-22
